X: 3703
T: Billy Rushe's Own
R: jig
M: 6/8
K: Dmajor
AFA AFA|Bdd ede|faf bge|fdd edB|
ABA AFA|Bdd ede|faf ede|fdd d3:|
|:faa afd|gfe fdd|efe ede|faf gfe|
faa afd|gfe fdB|~A3 AFA|Bdd d3:|

